actions/22/segment-line.svg

<?xml version="1.0" encoding="UTF-8" standalone="no"?>
<!-- Created with Inkscape (http://www.inkscape.org/) -->

<svg
   xmlns:dc="http://purl.org/dc/elements/1.1/"
   xmlns:cc="http://creativecommons.org/ns#"
   xmlns:rdf="http://www.w3.org/1999/02/22-rdf-syntax-ns#"
   xmlns:svg="http://www.w3.org/2000/svg"
   xmlns="http://www.w3.org/2000/svg"
   xmlns:xlink="http://www.w3.org/1999/xlink"
   xmlns:inkscape="http://www.inkscape.org/namespaces/inkscape"
   version="1.0"
   width="22"
   height="22"
   id="svg8472">
  <defs
     id="defs8474">
    <linearGradient
       id="linearGradient8039">
      <stop
         id="stop8041"
         style="stop-color:#000000;stop-opacity:1"
         offset="0" />
      <stop
         id="stop8043"
         style="stop-color:#000000;stop-opacity:0"
         offset="1" />
    </linearGradient>
    <radialGradient
       cx="10.120466"
       cy="439.65573"
       r="3.0052037"
       fx="10.120466"
       fy="439.65573"
       id="radialGradient10171"
       xlink:href="#linearGradient8039"
       gradientUnits="userSpaceOnUse"
       gradientTransform="matrix(1,0,0,0.4779412,0,229.52615)" />
  </defs>
  <metadata
     id="metadata8477">
    <rdf:RDF>
      <cc:Work
         rdf:about="">
        <dc:format>image/svg+xml</dc:format>
        <dc:type
           rdf:resource="http://purl.org/dc/dcmitype/StillImage" />
        <dc:title>Segment Line</dc:title>
        <dc:date>2006-05-01</dc:date>
        <dc:creator>
          <cc:Agent>
            <dc:title>Lapo Calamandrei</dc:title>
          </cc:Agent>
        </dc:creator>
        <cc:license
           rdf:resource="http://creativecommons.org/licenses/GPL/2.0/" />
        <dc:subject>
          <rdf:Bag>
            <rdf:li>segment</rdf:li>
            <rdf:li>line</rdf:li>
            <rdf:li>straight</rdf:li>
          </rdf:Bag>
        </dc:subject>
      </cc:Work>
      <cc:License
         rdf:about="http://creativecommons.org/licenses/GPL/2.0/">
        <cc:permits
           rdf:resource="http://web.resource.org/cc/Reproduction" />
        <cc:permits
           rdf:resource="http://web.resource.org/cc/Distribution" />
        <cc:requires
           rdf:resource="http://web.resource.org/cc/Notice" />
        <cc:permits
           rdf:resource="http://web.resource.org/cc/DerivativeWorks" />
        <cc:requires
           rdf:resource="http://web.resource.org/cc/ShareAlike" />
        <cc:requires
           rdf:resource="http://web.resource.org/cc/SourceCode" />
      </cc:License>
    </rdf:RDF>
  </metadata>
  <g
     id="layer1">
    <path
       d="m 4.5,17.5 13,-13"
       inkscape:connector-curvature="0"
       id="path7843"
       style="fill:#729fcf;fill-rule:evenodd;stroke:#204a87;stroke-width:3;stroke-linecap:butt;stroke-linejoin:miter;stroke-miterlimit:4;stroke-opacity:1;stroke-dasharray:none" />
    <path
       d="m 13.12567,439.65573 a 3.0052037,1.4363106 0 1 1 -6.0104075,0 3.0052037,1.4363106 0 1 1 6.0104075,0 z"
       transform="matrix(2.8521959,0,0,2.0886843,-21.865551,-900.30204)"
       id="path7829"
       style="opacity:0.3;fill:url(#radialGradient10171);fill-opacity:1;stroke:none" />
    <path
       d="m 4.5,17.5 13,-13"
       inkscape:connector-curvature="0"
       id="path7841"
       style="fill:none;stroke:#93b6db;stroke-width:1.20000005;stroke-linecap:butt;stroke-linejoin:miter;stroke-miterlimit:4;stroke-opacity:1;stroke-dasharray:none" />
    <g
       transform="translate(-334,-419)"
       id="g7849">
      <path
         d="m 349.5,421.50001 4,0 0,3.99994 -4,0 0,-3.99994 z"
         inkscape:connector-curvature="0"
         id="path7837"
         style="fill:#babdb6;fill-opacity:1;stroke:#888a85;stroke-width:1.00000024;stroke-linecap:round;stroke-linejoin:round;stroke-miterlimit:4;stroke-opacity:1" />
      <path
         d="m 350.5,422.50002 2,0 0,2.00008 -2,0 0,-2.00008 z"
         inkscape:connector-curvature="0"
         id="path7839"
         style="fill:none;stroke:#ffffff;stroke-width:1.00000048;stroke-linecap:round;stroke-linejoin:miter;stroke-miterlimit:4;stroke-opacity:1" />
    </g>
    <g
       transform="translate(-334,-419)"
       id="g7845">
      <path
         d="m 336.5,434.50001 4,0 0,3.99994 -4,0 0,-3.99994 z"
         inkscape:connector-curvature="0"
         id="path7831"
         style="fill:#babdb6;fill-opacity:1;stroke:#888a85;stroke-width:1.00000024;stroke-linecap:round;stroke-linejoin:round;stroke-miterlimit:4;stroke-opacity:1" />
      <path
         d="m 337.5,435.50002 2,0 0,2.00008 -2,0 0,-2.00008 z"
         inkscape:connector-curvature="0"
         id="path7833"
         style="fill:none;stroke:#ffffff;stroke-width:1.00000048;stroke-linecap:round;stroke-linejoin:miter;stroke-miterlimit:4;stroke-opacity:1" />
    </g>
  </g>
</svg>

<?xml version="1.0" encoding="UTF-8" standalone="no"?>
<!-- Created with Inkscape (http://www.inkscape.org/) -->
<svg
   xmlns:dc="http://purl.org/dc/elements/1.1/"
   xmlns:cc="http://web.resource.org/cc/"
   xmlns:rdf="http://www.w3.org/1999/02/22-rdf-syntax-ns#"
   xmlns:svg="http://www.w3.org/2000/svg"
   xmlns="http://www.w3.org/2000/svg"
   xmlns:xlink="http://www.w3.org/1999/xlink"
   xmlns:sodipodi="http://sodipodi.sourceforge.net/DTD/sodipodi-0.dtd"
   xmlns:inkscape="http://www.inkscape.org/namespaces/inkscape"
   width="22"
   height="22"
   id="svg8472"
   sodipodi:version="0.32"
   inkscape:version="0.45"
   sodipodi:docbase="/home/lapo/Desktop/arts-libre/22x22"
   sodipodi:docname="segment-line.svg"
   inkscape:output_extension="org.inkscape.output.svg.inkscape"
   version="1.0">
  <defs
     id="defs8474">
    <linearGradient
       inkscape:collect="always"
       id="linearGradient8039">
      <stop
         style="stop-color:#000000;stop-opacity:1;"
         offset="0"
         id="stop8041" />
      <stop
         style="stop-color:#000000;stop-opacity:0;"
         offset="1"
         id="stop8043" />
    </linearGradient>
    <radialGradient
       inkscape:collect="always"
       xlink:href="#linearGradient8039"
       id="radialGradient10171"
       gradientUnits="userSpaceOnUse"
       gradientTransform="matrix(1,0,0,0.4779412,0,229.52615)"
       cx="10.120466"
       cy="439.65573"
       fx="10.120466"
       fy="439.65573"
       r="3.0052037" />
  </defs>
  <sodipodi:namedview
     id="base"
     pagecolor="#ffffff"
     bordercolor="#666666"
     borderopacity="1.0"
     inkscape:pageopacity="0.0"
     inkscape:pageshadow="2"
     inkscape:zoom="1"
     inkscape:cx="20.926617"
     inkscape:cy="11.578159"
     inkscape:current-layer="layer1"
     showgrid="true"
     inkscape:grid-bbox="true"
     inkscape:document-units="px"
     borderlayer="false"
     inkscape:showpageshadow="false"
     showborder="false"
     inkscape:window-width="872"
     inkscape:window-height="763"
     inkscape:window-x="102"
     inkscape:window-y="195"
     width="22px"
     height="22px" />
  <metadata
     id="metadata8477">
    <rdf:RDF>
      <cc:Work
         rdf:about="">
        <dc:format>image/svg+xml</dc:format>
        <dc:type
           rdf:resource="http://purl.org/dc/dcmitype/StillImage" />
        <dc:title>Segment Line</dc:title>
        <dc:date>2006-05-01</dc:date>
        <dc:creator>
          <cc:Agent>
            <dc:title>Lapo Calamandrei</dc:title>
          </cc:Agent>
        </dc:creator>
        <cc:license
           rdf:resource="http://creativecommons.org/licenses/GPL/2.0/" />
        <dc:subject>
          <rdf:Bag>
            <rdf:li>segment</rdf:li>
            <rdf:li>line</rdf:li>
            <rdf:li>straight</rdf:li>
          </rdf:Bag>
        </dc:subject>
      </cc:Work>
      <cc:License
         rdf:about="http://creativecommons.org/licenses/GPL/2.0/">
        <cc:permits
           rdf:resource="http://web.resource.org/cc/Reproduction" />
        <cc:permits
           rdf:resource="http://web.resource.org/cc/Distribution" />
        <cc:requires
           rdf:resource="http://web.resource.org/cc/Notice" />
        <cc:permits
           rdf:resource="http://web.resource.org/cc/DerivativeWorks" />
        <cc:requires
           rdf:resource="http://web.resource.org/cc/ShareAlike" />
        <cc:requires
           rdf:resource="http://web.resource.org/cc/SourceCode" />
      </cc:License>
    </rdf:RDF>
  </metadata>
  <g
     id="layer1"
     inkscape:label="Layer 1"
     inkscape:groupmode="layer">
    <path
       style="fill:#729fcf;fill-rule:evenodd;stroke:#204a87;stroke-width:3;stroke-linecap:butt;stroke-linejoin:miter;stroke-miterlimit:4;stroke-dasharray:none;stroke-opacity:1"
       d="M 4.5,17.5 L 17.5,4.5"
       id="path7843" />
    <path
       sodipodi:type="arc"
       style="opacity:0.3;fill:url(#radialGradient10171);fill-opacity:1;stroke:none;stroke-width:1;stroke-linecap:round;stroke-linejoin:miter;stroke-miterlimit:4;stroke-dasharray:none;stroke-opacity:1"
       id="path7829"
       sodipodi:cx="10.120466"
       sodipodi:cy="439.65573"
       sodipodi:rx="3.0052037"
       sodipodi:ry="1.4363106"
       d="M 13.12567 439.65573 A 3.0052037 1.4363106 0 1 1  7.1152625,439.65573 A 3.0052037 1.4363106 0 1 1  13.12567 439.65573 z"
       transform="matrix(2.8521959,0,0,2.0886843,-21.865551,-900.30204)" />
    <path
       style="fill:none;fill-rule:evenodd;stroke:#93b6db;stroke-width:1.20000005;stroke-linecap:butt;stroke-linejoin:miter;stroke-miterlimit:4;stroke-dasharray:none;stroke-opacity:1"
       d="M 4.5,17.5 L 17.5,4.5"
       id="path7841" />
    <g
       id="g7849"
       transform="translate(-334,-419)">
      <path
         style="opacity:1;fill:#babdb6;fill-opacity:1;stroke:#888a85;stroke-width:1.00000024;stroke-linecap:round;stroke-linejoin:round;stroke-miterlimit:4;stroke-opacity:1"
         d="M 349.5,421.50001 L 353.5,421.50001 L 353.5,425.49995 L 349.5,425.49995 L 349.5,421.50001 z "
         id="path7837" />
      <path
         style="opacity:1;fill:none;fill-opacity:1;stroke:#ffffff;stroke-width:1.00000048;stroke-linecap:round;stroke-linejoin:miter;stroke-miterlimit:4;stroke-opacity:1"
         d="M 350.5,422.50002 L 352.5,422.50002 L 352.5,424.5001 L 350.5,424.5001 L 350.5,422.50002 z "
         id="path7839" />
    </g>
    <g
       id="g7845"
       transform="translate(-334,-419)">
      <path
         style="opacity:1;fill:#babdb6;fill-opacity:1;stroke:#888a85;stroke-width:1.00000024;stroke-linecap:round;stroke-linejoin:round;stroke-miterlimit:4;stroke-opacity:1"
         d="M 336.5,434.50001 L 340.5,434.50001 L 340.5,438.49995 L 336.5,438.49995 L 336.5,434.50001 z "
         id="path7831" />
      <path
         style="opacity:1;fill:none;fill-opacity:1;stroke:#ffffff;stroke-width:1.00000048;stroke-linecap:round;stroke-linejoin:miter;stroke-miterlimit:4;stroke-opacity:1"
         d="M 337.5,435.50002 L 339.5,435.50002 L 339.5,437.5001 L 337.5,437.5001 L 337.5,435.50002 z "
         id="path7833" />
    </g>
  </g>
</svg>
